X:1
T: Little Duke's Reel
C:
R:Reel
Q: 232
K:G
M:4/4
L:1/8
|:G2 ge dB AG|FD AD BD AD|G2 ge dB AG|FG Ac BG G2|
G2 ge dB AG|FD AD BD AD|G2 ge dB AG|FG Ac BG G2|
ge dB cA Aa|fd ad bd ad|ge dB cA Ac|df ga bg g2|
ge dB cA Aa|fd ad bd ad|ge dB cA Ac|df ga bg g2:|
